X: 31
T:Sally Picker
% Nottingham Music Database
S:Kevin Briggs, via EF
M:4/4
L:1/4
K:G
P:A
D|"G"GB/2G/2 "D7"DE/2F/2|"G"GB/2d/2 g/2d/2B/2G/2|"C"ce/2c/2 "G"Bd/2B/2|\
"Am"A/2B/2A/2G/2 "D7"F/2D/2E/2F/2|
"G"GB/2G/2 "D7"DE/2F/2|"G"GB/2d/2 gg|"D"f/2a/2f/2d/2 "A7"e/2g/2e/2^c/2|\
"D7"dd/2d/2 d:|
P:B
c|"G"B/2d/2d/2d/2 e/2d/2d/2d/2|"G"g/2d/2d/2d/2 e/2d/2d/2d/2|\
"C"e/2f/2g/2f/2 e/2d/2c/2B/2|"Am"A/2B/2A/2G/2 "D7"F/2D/2E/2F/2|
"G"GB/2G/2 "D7"DE/2F/2|"G"GB/2d/2 g/2d/2B/2G/2|\
"C"c/2e/2d/2c/2 "D7"B/2A/2G/2F/2|"D"AG G:|<end>
<start>
